X:735
T: Saint Raymond's (with piano acc.)
C: BB
R: hornpipe
Q: 1/8=330
M: C|
L: 1/8
V: 1 program 1 110 %fiddle
V: 2 volume=70 clef=bass m=D program 1 01
K: D
[V:1] "D"DEFG A2 d2|"G"BGBc "D"dA F2|"D"DEFG A2 d2|"Bm"BABd "A"e4|
[V:2] D,2[A2D2F2]A,,2[A2D2F2]|G,,2[G2B2D2]D,2[A2D2F2]|F,,2[A2D2F2]A,,2[A2D2F2]|\
B,,2[F2D2B2]A,,2[A2C2E2]|
%
[V:1] "D"fddf "G"gBBg|"A"acca "Bm"bafe|"D"f2 df "Bm"cfBf|"A7"AGEC "D"D4 :|
[V:2]  D,2[A2D2F2]G,,2[G2B2D2]|A,,2[A2C2E2]B,,2[F2D2B2]| D,2[A2D2F2]B,,2[F2D2B2]|\
A,,2[G2C2E2]D,2[A2D2F2] :|
%
[V:1] "D"fefg "Bm"fB (3B^AB|"G"d2 "A"e2 "D"f2 a2|"Em"eB (3B^AB "D"=AF (3F^EF|\
"G"GABd "A"e4|
[V:2]  D,2[A2D2F2]B,,2[F2D2B2]|G,,2[A,2C2E2]D,2[D2A2F2]|E,2[E2B2G2] D,2[A2D2F2]|\
G,,2[G2B2D2]A,,2[A2C2E2]|
%
[V:1] "D"fefg "Bm"fB (3B^AB|"A"abag "D"fd (3dcd|"D"DEFA "G"GdcB|"A7"AGEC "D"D4 :|
[V:2] D,2[A2D2F2]B,,2[F2D2B2]|A,,2[G2C2E2]D,2[A2D2F2]|F,,2[A2D2F2]G,,2[G2B2D2]|\
A,,2[G2C2E2][A,4D,4F4] :|
%%%%%%%%%%%%%%%%%%%%%%%%%%%%%%%%%%%%%%%%%%%
